packages/kaspersky-hexa-ui-icons/src/iconsSVGs/64x42/FlagWs.svg

<svg width="64" height="42" viewBox="0 0 64 42" fill="none" xmlns="http://www.w3.org/2000/svg">
<g clip-path="url(#clip0_37941_2376)">
<rect width="64" height="42" rx="5" fill="white"/>
<rect width="64" height="42" fill="#E31F37"/>
<path fill-rule="evenodd" clip-rule="evenodd" d="M0 21H30.7999V0H0V21Z" fill="#083B9A"/>
<path fill-rule="evenodd" clip-rule="evenodd" d="M14.6999 4.90004L12.72 5.47994L13.2999 3.50004L12.72 1.52014L14.6999 2.10004L16.6798 1.52014L16.0999 3.50004L16.6798 5.47994L14.6999 4.90004ZM14.6999 18.9002L12.72 19.4801L13.2999 17.5002L12.72 15.5203L14.6999 16.1002L16.6798 15.5203L16.0999 17.5002L16.6798 19.4801L14.6999 18.9002ZM7.12012 12.4803L9.10002 11.9004L11.0799 12.4803L10.5 10.5004L11.0799 8.52048L9.10002 9.10038L7.12012 8.52048L7.70002 10.5004L7.12012 12.4803ZM21.7 10.5002L19.7201 11.0801L20.3 9.10021L19.7201 7.12031L21.7 7.70021L23.6799 7.12031L23.1 9.10021L23.6799 11.0801L21.7 10.5002ZM18.1998 14.7C18.5864 14.7 18.8998 14.3866 18.8998 14C18.8998 13.6134 18.5864 13.3 18.1998 13.3C17.8132 13.3 17.4998 13.6134 17.4998 14C17.4998 14.3866 17.8132 14.7 18.1998 14.7Z" fill="white"/>
</g>
<defs>
<clipPath id="clip0_37941_2376">
<rect width="64" height="42" rx="5" fill="white"/>
</clipPath>
</defs>
</svg>

<svg xmlns="http://www.w3.org/2000/svg" width="64" height="42" fill="none" viewBox="0 0 64 42"><g clip-path="url(#a)"><rect width="64" height="42" fill="#fff" rx="5"/><path fill="#e31f37" d="M0 0h64v42H0z"/><path fill="#083b9a" fill-rule="evenodd" d="M0 21h30.7999V0H0z" clip-rule="evenodd"/><path fill="#fff" fill-rule="evenodd" d="m14.6999 4.9-1.9799.58.5799-1.98-.5799-1.9799 1.9799.58 1.9799-.58-.5799 1.98.5799 1.9798zm0 14.0002-1.9799.5799.5799-1.9799-.5799-1.9799 1.9799.5799 1.9799-.5799-.5799 1.9799.5799 1.9799zm-7.5798-6.4199 1.98-.5799 1.9798.5799-.5799-1.9799.5799-1.98-1.9799.58-1.9799-.58.58 1.98zM21.7 10.5002l-1.9799.5799.5799-1.9799-.5799-1.9799 1.9799.58 1.9799-.58-.5799 1.98.5799 1.9798zM18.1998 14.7a.7.7 0 1 0 0-1.4.7.7 0 0 0 0 1.4" clip-rule="evenodd"/></g><defs><clipPath id="a"><rect width="64" height="42" fill="#fff" rx="5"/></clipPath></defs></svg>
